public/images/social-media/ok.svg

<svg width="48" height="48" viewBox="0 0 48 48" fill="none" xmlns="http://www.w3.org/2000/svg">
<rect width="48" height="48" rx="24" fill="#FFAB25" fill-opacity="0.1"/>
<path d="M24 13.9998C26.7569 13.9998 29.0001 16.2429 29.0001 18.9998C29.0001 21.7568 26.7569 23.9999 24 23.9999C21.2431 23.9999 18.9999 21.7568 18.9999 18.9998C18.9999 16.2429 21.2431 13.9998 24 13.9998ZM24 16.4998C23.337 16.4998 22.7011 16.7632 22.2322 17.232C21.7634 17.7009 21.5 18.3368 21.5 18.9998C21.5 19.6629 21.7634 20.2988 22.2322 20.7676C22.7011 21.2365 23.337 21.4999 24 21.4999C24.6631 21.4999 25.299 21.2365 25.7678 20.7676C26.2367 20.2988 26.5001 19.6629 26.5001 18.9998C26.5001 18.3368 26.2367 17.7009 25.7678 17.232C25.299 16.7632 24.6631 16.4998 24 16.4998ZM19.6164 24.625C19.8565 24.6229 20.0997 24.69 20.3146 24.8325C20.3565 24.8594 21.9518 25.875 24 25.875C26.0657 25.875 27.671 24.8419 27.6866 24.8313C28.2616 24.455 29.0358 24.6127 29.4152 25.1877C29.7939 25.7621 29.641 26.5332 29.0685 26.915C28.9972 26.9625 27.6194 27.8648 25.6187 28.2261L29.2589 31.8663C29.747 32.3544 29.747 33.1458 29.2589 33.6339C29.0145 33.8783 28.6951 34.0001 28.3751 34.0001C28.0551 34.0001 27.7357 33.8783 27.4913 33.6339L24 30.1426L20.5087 33.6339C20.0206 34.122 19.2293 34.122 18.7411 33.6339C18.253 33.1458 18.253 32.3544 18.7411 31.8663L22.3813 28.2261C20.38 27.8648 19.0028 26.9632 18.9316 26.915C18.3572 26.5325 18.2024 25.756 18.5849 25.1816C18.8239 24.8234 19.2162 24.6283 19.6164 24.625Z" fill="#FFAB25"/>
</svg>

<svg xmlns="http://www.w3.org/2000/svg" width="48" height="48" fill="none"><rect width="48" height="48" fill="#FFAB25" fill-opacity=".1" rx="24"/><path fill="#FFAB25" d="M24 14c2.757 0 5 2.243 5 5s-2.243 5-5 5-5-2.243-5-5 2.243-5 5-5m0 2.5a2.5 2.5 0 1 0 0 5 2.5 2.5 0 0 0 0-5m-4.384 8.125c.24-.002.484.065.699.207.041.027 1.637 1.043 3.685 1.043 2.066 0 3.671-1.033 3.687-1.044a1.251 1.251 0 0 1 1.381 2.084c-.07.047-1.449.95-3.45 1.311l3.64 3.64a1.25 1.25 0 0 1-1.767 1.768L24 30.143l-3.491 3.49a1.25 1.25 0 0 1-1.768-1.767l3.64-3.64c-2.001-.361-3.378-1.263-3.45-1.311a1.25 1.25 0 0 1 .685-2.29"/></svg>
